X: 08074
T: The MERMAID
C: Bob McQuillen 8 Aug 90
B: Bob's Note Book 8 #74
%R: waltz
Z: 2021 John Chambers <jc:trillian.mit.edu>
M: 3/4
L: 1/4
K: G
G/E/ \
| "G"D>EG | "Am"ABA | "G"GB>G | "Am"E2G | "G"D>EG | "Em"ABA | "Am"AG>B | "Bm"d2d |\
| "C"e>dB | "Bm"dBA | "G"Bd>B | "Am"AGA | "G"Bd>B | "Am"AGE | "D"ED>E | "D"D2 :|
|: D \
| "G"EGA | B>GB | "C"ABA | "D7"GED | "G"EGA | "Em"B>GB | "Am"de>d | "Bm"B2d |\
| "C"e>de | "Bm"dBG | "Am"EG>B | A2A | "G"B>AG | "C6"ECE | "D"D>ED | D2 :|
%%begintext align
%% Wednesday nights at
%% the Mermaid Inn in Philly, the clan gathers
%% and plays joyful music into the wee hours,
%% thanks to the benevolence of Joanne Makis,
%% the owner. We love you, Joanne! Thanks a lot!!
%%endtext

%%sep 1 1 500

%%sep 1 1 500

